X:1
T:Title
%%score 1 2
L:1/8
Q:1/4=90
M:4/4
K:F
V:1 treble nm="Church Organ, Soprano"
V:2 bass nm="Church Organ, Bass"
V:1
 z4 z2 [CF]>[CG] | [FA]2 [FA]2 [FA]2 [CG]>[CF] | [Fc]2 [Fc]2 [Fc]2 [Fd]>[Fc] | %3
w: 1.~Once~ a|gain~ we~ come~ to~ the~|house~ of~ God,~ To~ u|
 [FA]2 [FA]2 [CG]2 [DF]2 | [EG]6 [CF]>[CG] | [FA]2 [FA]2 [FA]2 [CG]>[CF] | %6
w: nite~ in~ songs~ of~|praise;~ To~ ex|tol~ with~ joy~ our~ Re|
 [Fc]2 [Fc]2 [Fc]2 [Fd]>[Fc] | [FA]2 [FA]2 [FA]2 [EG]2 | [CF]6 [Fc]>[Fc] | %9
w: deem er's~ name,~ And~ to~|tell~ His~ won drous~|ways.~ * *|
 [Fd]2 [Fd]2 [Fd]2 [Fd][Fd] | [Fc][Fc] [Fc]2 [Fc]2 [FA]>[CG] | [CF]2 [CF]2 [Fc]2 [FA]2 | %12
w: |||
 [EG]6 [CF]>[CG] | [FA]2 [FA]2 [FA]2 [CG]>[CF] | [Fc]2 [Fc]2 [Fc]2 [Fd]>[Fc] | %15
w: |||
 [FA]2 [FA]2 [FA]2 [EG]2 | [CF]6 z2 |] %17
w: ||
V:2
 z4 z2 [F,A,]>[F,B,] | [F,C]2 [F,C]2 [F,C]2 [F,B,]>[F,A,] | [F,A,]2 [F,A,]2 [F,A,]2 [F,B,]>[F,A,] | %3
 [F,C]2 [F,C]2 [E,C]2 [D,=B,]2 | [C,C]6 [F,A,]>[F,B,] | [F,C]2 [F,C]2 [F,C]2 [F,B,]>[F,A,] | %6
 [F,A,]2 [F,A,]2 [F,A,]2 [F,B,]>[F,A,] | [C,C]2 [C,C]2 [C,C]2 [C,B,]2 | [F,A,]6 [F,A,]>[F,A,] | %9
 [B,,B,]2 [B,,B,]2 [B,,B,]2 [B,,B,][B,,B,] | [F,A,][F,A,] [F,A,]2 [F,A,]2 [F,C]>[F,B,] | %11
 [F,A,]2 [F,A,]2 [F,A,]2 [F,C]2 | [C,C]6 [F,A,]>[F,B,] | [F,C]2 [F,C]2 [F,C]2 [F,B,]>[F,A,] | %14
 [F,A,]2 [F,A,]2 [F,A,]2 [F,B,]>[F,A,] | [C,C]2 [C,C]2 [C,C]2 [C,B,]2 | [F,A,]6 z2 |] %17

